<?xml version="1.0" encoding="UTF-8"?>
<map version="1.10" tiledversion="1.12.2" orientation="orthogonal" renderorder="right-down" width="15" height="10" tilewidth="32" tileheight="32" infinite="0" nextlayerid="6" nextobjectid="3">
 <tileset firstgid="153" source="default_room_interiors.tsx"/>
 <layer id="1" name="Background Solid" width="15" height="10">
  <data encoding="csv">
459,459,459,459,459,459,459,459,459,459,459,459,459,459,459,
459,459,459,459,459,459,459,459,459,459,459,459,459,459,459,
459,459,459,459,459,459,459,459,459,459,459,459,459,459,459,
459,459,459,459,459,459,459,459,459,459,459,459,459,459,459,
459,459,459,459,459,459,459,459,459,459,459,459,459,459,459,
459,459,459,459,459,459,459,459,459,459,459,459,459,459,459,
459,459,459,459,459,459,459,459,459,459,459,459,459,459,459,
459,459,459,459,459,459,459,459,459,459,459,459,459,459,459,
459,459,459,459,459,459,459,459,459,459,459,459,459,459,459,
459,459,459,459,459,459,459,459,459,459,459,459,459,459,459
</data>
 </layer>
 <layer id="2" name="Floors and Walls" width="15" height="10">
  <data encoding="csv">
0,0,0,0,0,0,0,0,0,0,0,0,0,0,0,
175,194,194,194,194,194,194,194,194,194,194,194,194,194,176,
199,217,218,218,218,218,218,218,218,218,218,218,218,219,200,
199,241,242,242,242,242,242,242,242,242,242,242,242,243,200,
199,172,172,172,172,172,172,172,172,172,172,172,172,172,200,
199,172,172,172,172,172,172,172,172,172,172,172,172,172,200,
199,172,172,172,172,172,172,172,172,172,172,172,172,172,200,
199,172,172,172,172,172,172,172,172,172,172,172,172,172,200,
199,172,172,172,172,172,172,172,172,172,172,172,172,172,200,
223,170,170,170,170,170,170,170,170,170,170,170,170,170,224
</data>
 </layer>
 <layer id="3" name="Doors" width="15" height="10">
  <data encoding="csv">
0,0,0,0,0,0,0,0,0,0,0,0,0,0,0,
0,0,0,0,0,0,0,0,0,0,0,0,0,0,0,
0,0,0,0,0,0,0,0,0,0,0,0,0,0,0,
0,0,0,0,0,0,0,0,0,0,0,0,0,0,0,
0,0,0,0,0,0,0,0,0,0,0,0,0,0,0,
0,0,0,0,0,0,0,0,0,0,0,0,0,0,0,
0,0,0,0,0,0,0,0,0,0,0,0,0,0,0,
0,0,0,0,0,0,0,0,0,0,0,0,0,0,0,
0,0,0,0,0,0,434,435,436,0,0,0,0,0,0,
0,0,0,0,0,0,0,0,0,0,0,0,0,0,0
</data>
 </layer>
 <objectgroup id="5" name="Door Objects">
  <object id="1" name="elevator" type="elevator" x="224" y="278" width="32" height="8">
   <properties>
    <property name="display_label" value="Elevator"/>
   </properties>
  </object>
 </objectgroup>
 <objectgroup id="4" name="Spawns">
  <object id="2" name="default_room_spawn" type="spawn" x="240" y="240">
   <point/>
  </object>
 </objectgroup>
</map>
