<?xml version="1.0" encoding="UTF-8"?>
<map version="1.10" tiledversion="1.12.2" orientation="orthogonal" renderorder="right-down" width="15" height="10" tilewidth="32" tileheight="32" infinite="0" nextlayerid="10" nextobjectid="10">
 <tileset firstgid="1" source="default_room_interiors.tsx"/>
 <layer id="1" name="Background Solid" width="15" height="10">
  <data encoding="csv">
307,307,307,307,307,307,307,307,307,307,307,307,307,307,307,
307,307,307,307,307,307,307,307,307,307,307,307,307,307,307,
307,307,307,307,307,307,307,307,307,307,307,307,307,307,307,
307,307,307,307,307,307,307,307,307,307,307,307,307,307,307,
307,307,307,307,307,307,307,307,307,307,307,307,307,307,307,
307,307,307,307,307,307,307,307,307,307,307,307,307,307,307,
307,307,307,307,307,307,307,307,307,307,307,307,307,307,307,
307,307,307,307,307,307,307,307,307,307,307,307,307,307,307,
307,307,307,307,307,307,307,307,307,307,307,307,307,307,307,
307,307,307,307,307,307,307,307,307,307,307,307,307,307,307
</data>
 </layer>
 <layer id="2" name="Floors and Walls" width="15" height="10">
  <data encoding="csv">
0,0,0,0,0,0,0,0,0,0,0,0,0,0,0,
291,195,196,196,196,196,196,196,196,196,196,196,196,197,290,
291,219,220,220,220,220,220,220,220,220,220,220,220,221,290,
291,243,244,244,244,244,244,244,244,244,244,244,244,245,290,
291,20,20,20,20,20,20,20,20,20,20,20,20,20,290,
291,20,20,20,20,20,20,20,20,20,20,20,20,20,290,
291,20,20,20,20,20,20,20,20,20,20,20,20,20,290,
291,20,20,20,20,20,20,20,20,20,20,20,20,20,290,
289,20,20,20,20,20,20,20,20,20,20,20,20,20,290,
274,267,267,267,267,267,267,267,267,267,267,267,267,267,275
</data>
 </layer>
 <layer id="4" name="Carpet" width="15" height="10">
  <data encoding="csv">
0,0,0,0,0,0,0,0,0,0,0,0,0,0,0,
0,0,0,0,0,0,0,0,0,0,0,0,0,0,0,
0,0,0,0,0,0,0,0,0,0,0,0,0,0,0,
0,0,0,0,0,0,0,0,0,0,0,0,0,0,0,
0,0,0,0,0,0,0,0,0,0,0,0,0,0,0,
0,0,0,0,0,0,0,0,0,0,0,0,0,0,0,
0,0,0,0,0,0,0,0,0,0,0,0,0,0,0,
0,0,0,0,0,0,0,0,0,0,0,0,0,0,0,
0,0,0,0,0,0,0,0,0,0,0,0,0,0,0,
0,0,0,0,0,0,0,0,0,0,0,0,0,0,0
</data>
 </layer>
 <layer id="5" name="Placeables" width="15" height="10">
  <data encoding="csv">
0,0,0,0,0,0,0,0,0,0,0,0,0,0,0,
0,0,0,0,0,0,0,0,0,0,0,0,0,0,0,
0,0,0,0,0,12,0,0,0,0,0,0,0,0,0,
0,123,124,425,535,36,0,0,0,0,0,0,0,0,0,
0,147,148,449,559,60,0,0,0,0,0,0,0,0,0,
0,171,172,0,0,0,0,0,0,0,0,0,0,0,0,
0,0,0,0,0,0,0,0,0,0,0,0,0,0,0,
0,0,0,0,0,0,0,0,0,0,0,0,0,0,0,
0,0,0,0,0,0,0,0,0,0,0,0,0,0,0,
0,0,0,0,0,0,0,0,0,0,0,0,0,0,0
</data>
 </layer>
 <layer id="6" name="Room Details" width="15" height="10">
  <data encoding="csv">
0,0,0,0,0,0,0,0,0,0,0,0,0,0,0,
0,0,0,0,0,0,0,0,0,0,0,0,0,0,0,
0,0,0,0,0,0,0,0,0,0,0,0,0,0,0,
0,0,0,430,0,0,472,0,472,0,0,0,0,0,0,
0,0,0,0,0,0,495,0,495,0,0,0,0,0,0,
0,0,0,0,0,0,0,0,0,0,0,0,0,0,0,
0,0,0,0,0,0,0,0,0,0,0,0,0,0,0,
0,0,0,0,0,0,0,0,0,0,0,0,0,0,0,
0,0,0,0,0,0,0,0,0,0,0,0,0,0,0,
0,0,0,0,0,0,0,0,0,0,0,0,0,0,0
</data>
 </layer>
 <layer id="3" name="Doors" width="15" height="10">
  <data encoding="csv">
0,0,0,0,0,0,0,0,0,0,0,0,0,0,0,
0,0,0,0,0,0,0,0,0,0,0,0,0,0,0,
0,0,0,0,0,0,0,498,0,0,0,0,0,0,0,
0,0,0,0,0,0,0,522,0,0,0,0,0,0,0,
0,0,0,0,0,0,0,0,0,0,0,0,0,0,0,
0,0,0,0,0,0,0,0,0,0,0,0,0,0,0,
0,0,0,0,0,0,0,0,0,0,0,0,0,0,0,
0,0,0,0,0,0,0,0,0,0,0,0,0,0,0,
0,0,0,0,0,0,0,0,0,0,0,0,0,0,0,
0,0,0,0,0,0,0,0,0,0,0,0,0,0,0
</data>
 </layer>
 <objectgroup id="7" name="Door Objects">
  <object id="1" name="appartment_exit" type="door" x="224" y="64" width="32" height="64">
   <properties>
    <property name="destination" value="lobby_0"/>
    <property name="destination_spawn" value="default_door_spawn"/>
    <property name="display_label" value="Lobby 0"/>
   </properties>
  </object>
 </objectgroup>
 <objectgroup id="8" name="Spawn Layer">
  <object id="2" name="default_appartment_door_spawn" type="spawn" x="240" y="144">
   <point/>
  </object>
 </objectgroup>
</map>
